;FLAVOR:Marlin
;TIME:133
;Filament used: 0.00427393m
;Layer height: 1
;MINX:50.5
;MINY:80.5
;MINZ:1
;MAXX:69.5
;MAXY:99.5
;MAXZ:5
;TARGET_MACHINE.NAME:Unknown
;Generated with Cura_SteamEngine 5.12.0
M105
G28 ;Home
G92 E0 A0 B0
M82 ;absolute extrusion mode
G92 E0
G92 E0
;LAYER_COUNT:5
;LAYER:0
M107
;MESH:cube.stl
G0 F1800 X52 Y81 Z1
;TYPE:FILL
G1 F600 X52 Y99 E2.99350 A0.29935 B0.00000
G1 X52 Y99.25
G0 F1800 X52 Y98.19
G0 X54 Y98.19
G0 X54 Y99
G1 F600 X54 Y81 E5.98700 A0.57375 B0.02495
G1 X54 Y80.75
G0 F1800 X54 Y81.81
G0 X56 Y81.81
G0 X56 Y81
G1 F600 X56 Y99 E8.98000 A0.82317 B0.07483
G1 X56 Y99.25
G0 F1800 X56 Y98.19
G0 X58 Y98.19
G0 X58 Y99
G1 F600 X58 Y81 E11.97350 A1.04768 B0.14967
G1 X58 Y80.75
G0 F1800 X58 Y81.81
G0 X60 Y81.81
G0 X60 Y81
G1 F600 X60 Y99 E14.96700 A1.24725 B0.24945
G1 X60 Y99.25
G0 F1800 X60 Y98.19
G0 X62 Y98.19
G0 X62 Y99
G1 F600 X62 Y81 E17.96050 A1.42187 B0.37418
G1 X62 Y80.75
G0 F1800 X62 Y81.81
G0 X64 Y81.81
G0 X64 Y81
G1 F600 X64 Y99 E20.95400 A1.57155 B0.52385
G1 X64 Y99.25
G0 F1800 X64 Y98.19
G0 X66 Y98.19
G0 X66 Y99
G1 F600 X66 Y81 E23.94750 A1.69627 B0.69848
G1 X66 Y80.75
G0 F1800 X66 Y81.81
G0 X68 Y81.81
G0 X68 Y81
G1 F600 X68 Y99 E26.94050 A1.79604 B0.89801
G1 X68 Y99.25
G0 F1800 X68 Y98.19
G0 X69.5 Y99.5
;TYPE:WALL-OUTER
G1 F600 X50.5 Y99.5 E30.89050 A1.89479 B1.19426
G1 X50.5 Y80.5 E34.84000 A1.96062 B1.52338
G1 X69.5 Y80.5 E38.78950 A1.99353 B1.88542
G1 X69.5 Y99.5 E42.73950 A1.99353 B2.28042
G0 F1800 X69 Y99.5
G0 X67.29 Y97.583
;MESH:NONMESH
G0 F600 Z2
G0 F1800 X52 Y81.81
G0 X52 Y81
;TIME_ELAPSED:29.509856
;LAYER:1
;TYPE:FILL
;MESH:cube.stl
G1 F600 X52 Y99 E45.73250 A2.29283 B2.28042
G1 X52 Y99.25
G0 F1800 X52 Y98.19
G0 X54 Y98.19
G0 X54 Y99
G1 F600 X54 Y81 E48.72600 A2.56723 B2.30537
G1 X54 Y80.75
G0 F1800 X54 Y81.81
G0 X56 Y81.81
G0 X56 Y81
G1 F600 X56 Y99 E51.71950 A2.81669 B2.35526
G1 X56 Y99.25
G0 F1800 X56 Y98.19
G0 X58 Y98.19
G0 X58 Y99
G1 F600 X58 Y81 E54.71300 A3.04120 B2.43010
G1 X58 Y80.75
G0 F1800 X58 Y81.81
G0 X60 Y81.81
G0 X60 Y81
G1 F600 X60 Y99 E57.70650 A3.24077 B2.52988
G1 X60 Y99.25
G0 F1800 X60 Y98.19
G0 X62 Y98.19
G0 X62 Y99
G1 F600 X62 Y81 E60.69950 A3.41536 B2.65459
G1 X62 Y80.75
G0 F1800 X62 Y81.81
G0 X64 Y81.81
G0 X64 Y81
G1 F600 X64 Y99 E63.69300 A3.56504 B2.80426
G1 X64 Y99.25
G0 F1800 X64 Y98.19
G0 X66 Y98.19
G0 X66 Y99
G1 F600 X66 Y81 E66.68650 A3.68977 B2.97888
G1 X66 Y80.75
G0 F1800 X66 Y81.81
G0 X68 Y81.81
G0 X68 Y81
G1 F600 X68 Y99 E69.68000 A3.78955 B3.17845
G1 X68 Y99.25
G0 F1800 X68 Y98.19
G0 X69.5 Y99.5
;TYPE:WALL-OUTER
G1 F600 X50.5 Y99.5 E73.62950 A3.88829 B3.47466
G1 X50.5 Y80.5 E77.57950 A3.95412 B3.80383
G1 X69.5 Y80.5 E81.52900 A3.98703 B4.16587
G1 X69.5 Y99.5 E85.47850 A3.98703 B4.56082
G0 F1800 X69 Y99.5
G0 X67.29 Y97.583
;MESH:NONMESH
G0 F600 Z3
G0 F1800 X52 Y81.81
G0 X52 Y81
;TIME_ELAPSED:55.805491
;LAYER:2
;TYPE:FILL
;MESH:cube.stl
G1 F600 X52 Y99 E88.47200 A4.28638 B4.56082
G1 X52 Y99.25
G0 F1800 X52 Y98.19
G0 X54 Y98.19
G0 X54 Y99
G1 F600 X54 Y81 E91.46550 A4.56079 B4.58576
G1 X54 Y80.75
G0 F1800 X54 Y81.81
G0 X56 Y81.81
G0 X56 Y81
G1 F600 X56 Y99 E94.45900 A4.81025 B4.63565
G1 X56 Y99.25
G0 F1800 X56 Y98.19
G0 X58 Y98.19
G0 X58 Y99
G1 F600 X58 Y81 E97.45200 A5.03472 B4.71048
G1 X58 Y80.75
G0 F1800 X58 Y81.81
G0 X60 Y81.81
G0 X60 Y81
G1 F600 X60 Y99 E100.44550 A5.23429 B4.81026
G1 X60 Y99.25
G0 F1800 X60 Y98.19
G0 X62 Y98.19
G0 X62 Y99
G1 F600 X62 Y81 E103.43900 A5.40891 B4.93499
G1 X62 Y80.75
G0 F1800 X62 Y81.81
G0 X64 Y81.81
G0 X64 Y81
G1 F600 X64 Y99 E106.43250 A5.55858 B5.08467
G1 X64 Y99.25
G0 F1800 X64 Y98.19
G0 X66 Y98.19
G0 X66 Y99
G1 F600 X66 Y81 E109.42600 A5.68331 B5.25929
G1 X66 Y80.75
G0 F1800 X66 Y81.81
G0 X68 Y81.81
G0 X68 Y81
G1 F600 X68 Y99 E112.41950 A5.78310 B5.45885
G1 X68 Y99.25
G0 F1800 X68 Y98.19
G0 X69.5 Y99.5
;TYPE:WALL-OUTER
G1 F600 X50.5 Y99.5 E116.36900 A5.88183 B5.75507
G1 X50.5 Y80.5 E120.31850 A5.94766 B6.08419
G1 X69.5 Y80.5 E124.26800 A5.98057 B6.44623
G1 X69.5 Y99.5 E128.21800 A5.98057 B6.84123
G0 F1800 X69 Y99.5
G0 X67.29 Y97.583
;MESH:NONMESH
G0 F600 Z4
G0 F1800 X52 Y81.81
G0 X52 Y81
;TIME_ELAPSED:82.101125
;LAYER:3
;TYPE:FILL
;MESH:cube.stl
G1 F600 X52 Y99 E131.21100 A6.27987 B6.84123
G1 X52 Y99.25
G0 F1800 X52 Y98.19
G0 X54 Y98.19
G0 X54 Y99
G1 F600 X54 Y81 E134.20450 A6.55427 B6.86618
G1 X54 Y80.75
G0 F1800 X54 Y81.81
G0 X56 Y81.81
G0 X56 Y81
G1 F600 X56 Y99 E137.19800 A6.80373 B6.91607
G1 X56 Y99.25
G0 F1800 X56 Y98.19
G0 X58 Y98.19
G0 X58 Y99
G1 F600 X58 Y81 E140.19150 A7.02825 B6.99090
G1 X58 Y80.75
G0 F1800 X58 Y81.81
G0 X60 Y81.81
G0 X60 Y81
G1 F600 X60 Y99 E143.18500 A7.22781 B7.09069
G1 X60 Y99.25
G0 F1800 X60 Y98.19
G0 X62 Y98.19
G0 X62 Y99
G1 F600 X62 Y81 E146.17850 A7.40243 B7.21542
G1 X62 Y80.75
G0 F1800 X62 Y81.81
G0 X64 Y81.81
G0 X64 Y81
G1 F600 X64 Y99 E149.17150 A7.55208 B7.36507
G1 X64 Y99.25
G0 F1800 X64 Y98.19
G0 X66 Y98.19
G0 X66 Y99
G1 F600 X66 Y81 E152.16500 A7.67681 B7.53969
G1 X66 Y80.75
G0 F1800 X66 Y81.81
G0 X68 Y81.81
G0 X68 Y81
G1 F600 X68 Y99 E155.15850 A7.77660 B7.73925
G1 X68 Y99.25
G0 F1800 X68 Y98.19
G0 X69.5 Y99.5
;TYPE:WALL-OUTER
G1 F600 X50.5 Y99.5 E159.10800 A7.87533 B8.03547
G1 X50.5 Y80.5 E163.05800 A7.94117 B8.36463
G1 X69.5 Y80.5 E167.00750 A7.97408 B8.72667
G1 X69.5 Y99.5 E170.95700 A7.97408 B9.12162
G0 F1800 X69 Y99.5
G0 X67.29 Y97.583
;MESH:NONMESH
G0 F600 Z5
G0 F1800 X52 Y81.81
G0 X52 Y81
;TIME_ELAPSED:108.396760
;LAYER:4
;TYPE:FILL
;MESH:cube.stl
G1 F600 X52 Y99 E173.95050 A8.27343 B9.12162
G1 X52 Y99.25
G0 F1800 X52 Y98.19
G0 X54 Y98.19
G0 X54 Y99
G1 F600 X54 Y81 E176.94400 A8.54783 B9.14657
G1 X54 Y80.75
G0 F1800 X54 Y81.81
G0 X56 Y81.81
G0 X56 Y81
G1 F600 X56 Y99 E179.93750 A8.79729 B9.19646
G1 X56 Y99.25
G0 F1800 X56 Y98.19
G0 X58 Y98.19
G0 X58 Y99
G1 F600 X58 Y81 E182.93050 A9.02177 B9.27128
G1 X58 Y80.75
G0 F1800 X58 Y81.81
G0 X60 Y81.81
G0 X60 Y81
G1 F600 X60 Y99 E185.92400 A9.22133 B9.37107
G1 X60 Y99.25
G0 F1800 X60 Y98.19
G0 X62 Y98.19
G0 X62 Y99
G1 F600 X62 Y81 E188.91750 A9.39595 B9.49580
G1 X62 Y80.75
G0 F1800 X62 Y81.81
G0 X64 Y81.81
G0 X64 Y81
G1 F600 X64 Y99 E191.91100 A9.54563 B9.64547
G1 X64 Y99.25
G0 F1800 X64 Y98.19
G0 X66 Y98.19
G0 X66 Y99
G1 F600 X66 Y81 E194.90450 A9.67036 B9.82009
G1 X66 Y80.75
G0 F1800 X66 Y81.81
G0 X68 Y81.81
G0 X68 Y81
G1 F600 X68 Y99 E197.89800 A9.77014 B10.01966
G1 X68 Y99.25
G0 F1800 X68 Y98.19
G0 X69.5 Y99.5
;TYPE:WALL-OUTER
G1 F600 X50.5 Y99.5 E201.84750 A9.86888 B10.31587
G1 X50.5 Y80.5 E205.79700 A9.93470 B10.64500
G1 X69.5 Y80.5 E209.74650 A9.96762 B11.00703
G1 X69.5 Y99.5 E213.69650 A9.96762 B11.40203
G0 F1800 X69 Y99.5
G0 X67.29 Y97.583
;TIME_ELAPSED:133.741143
G28
M82 ;absolute extrusion mode
;End of Gcode
;SETTING_3 {"global_quality": "[general]\\nversion = 4\\nname = DIW #2\\ndefinit
;SETTING_3 ion = custom\\n\\n[metadata]\\ntype = quality_changes\\nquality_type 
;SETTING_3 = normal\\nsetting_version = 26\\n\\n[values]\\nadhesion_type = none\
;SETTING_3 \nlayer_height = 1\\nlayer_height_0 = 1\\nspeed_slowdown_layers = 0\\
;SETTING_3 n\\n", "extruder_quality": ["[general]\\nversion = 4\\nname = DIW #2\
;SETTING_3 \ndefinition = custom\\n\\n[metadata]\\ntype = quality_changes\\nqual
;SETTING_3 ity_type = normal\\nintent_category = default\\nposition = 0\\nsettin
;SETTING_3 g_version = 26\\n\\n[values]\\ncool_fan_enabled = False\\nfill_outlin
;SETTING_3 e_gaps = False\\ninfill_angles = [0]\\ninfill_line_distance = 2\\ninf
;SETTING_3 ill_line_width = 0.8\\ninfill_sparse_density = 100\\nline_width = 1\\
;SETTING_3 nmaterial_flow = 1\\nmaterial_print_temperature = 0\\nretraction_enab
;SETTING_3 le = False\\nskin_angles = [0]\\nspeed_layer_0 = 10.0\\nspeed_print =
;SETTING_3  10\\nspeed_topbottom = 10.0\\nspeed_travel = 30\\nspeed_wall = 10\\n
;SETTING_3 top_bottom_thickness = 0\\nwall_0_wipe_dist = 0.5\\nwall_line_count =
;SETTING_3  1\\nwall_thickness = 0.5\\n\\n"]}
